X: 402
P: Longways for as many as will
M: C|
L: 1/8
K: D
V: 1
d4 A4 | F2D2 FGAF | E2=c2E2=c2 | E2C2 EFGE |\
d4 A4 | F3D D2F2 | GFED C2E2 | DDD2 D2 :|
|: ag |\
f3e d2a2 | f2d2 fgaf | e3d =c2g2 | e2=c2 efge |\
f2d2 g2e2 | a2f2 g2e2 | gfed c2e2 | ddd2 d2 :|
V: 2 clef=bass middle=d
z2 |\
d2d'2 c'2a2 | d4 d4 | =c4 c4 | c4 ^c4 |\
d2d'2 c'2a2 | d2=c2 B2d2 | G4 A4 | d4 z2 :|
|: z2 |\
d2c2 B2c2 | d4 d4 | =c4 z4 | c4 ^c4 |\
d4 e4 | f2d2 B2A2 | G4 A4 | d4 z2 :|

